findly-builder/apps/searchassist/src/assets/icons/onboarding/getting-started.svg

<svg width="40" height="40" viewBox="0 0 40 40" fill="none" xmlns="http://www.w3.org/2000/svg">
<path d="M20.834 19.1666L3.33398 20C3.33398 29.2041 10.7965 36.6666 20.0006 36.6666L20.834 19.1666Z" fill="url(#paint0_linear_629_32388)"/>
<path d="M19.166 20.8334L36.666 20C36.666 10.7959 29.2035 3.33337 19.9993 3.33337L19.166 20.8334Z" fill="url(#paint1_linear_629_32388)"/>
<path d="M20.0007 20H3.33398C3.33398 10.7959 10.7965 3.33337 20.0007 3.33337V20Z" fill="url(#paint2_linear_629_32388)"/>
<path d="M20 20H36.6667C36.6667 29.2042 29.2042 36.6667 20 36.6667V20Z" fill="url(#paint3_linear_629_32388)"/>
<path opacity="0.05" d="M31.0488 8.95016C31.7197 9.62183 31.8797 10.6035 31.4547 11.4527L25.7447 22.8727C25.1272 24.1077 24.1072 25.1277 22.8722 25.7452L11.4522 31.4552C10.6022 31.8802 9.62051 31.7193 8.94968 31.0493C8.27885 30.3777 8.11885 29.396 8.54385 28.5468L14.2538 17.1268C14.8713 15.8918 15.8913 14.871 17.1263 14.2543L28.5463 8.54433C28.8622 8.38683 29.1963 8.30933 29.5263 8.30933C30.0838 8.30933 30.6272 8.52933 31.0488 8.95016Z" fill="black"/>
<path opacity="0.05" d="M30.7544 9.24514C31.296 9.78764 31.4252 10.581 31.0827 11.2668L25.3727 22.6868C24.7952 23.8418 23.841 24.796 22.686 25.3735L11.266 31.0826C10.5802 31.426 9.78686 31.296 9.24436 30.7543C8.70269 30.2118 8.57353 29.4185 8.91603 28.7326L14.626 17.3126C15.2035 16.1576 16.1577 15.2035 17.3127 14.626L28.7327 8.91681C28.9877 8.78931 29.2577 8.72681 29.5244 8.72681C29.9744 8.72764 30.4135 8.90514 30.7544 9.24514Z" fill="black"/>
<path d="M22.4991 25.0002L11.0791 30.7102C9.93243 31.2835 8.71576 30.0669 9.2891 28.9202L14.9991 17.5002C15.5399 16.4185 16.4174 15.541 17.4991 15.0002L28.9191 9.2902C30.0658 8.71686 31.2824 9.93353 30.7091 11.0802L24.9991 22.5002C24.4583 23.5819 23.5808 24.4594 22.4991 25.0002Z" fill="url(#paint4_linear_629_32388)"/>
<path opacity="0.05" d="M29.526 31.69C29.196 31.69 28.8626 31.6133 28.546 31.455L17.126 25.745C15.891 25.1275 14.8701 24.1075 14.2535 22.8725L8.54348 11.4525C8.11931 10.6033 8.27848 9.62162 8.94931 8.94995C9.62015 8.27995 10.6018 8.11829 11.4518 8.54412L22.8718 14.2541C24.1068 14.8716 25.1276 15.8916 25.7443 17.1266L31.4543 28.5466C31.8785 29.3958 31.7193 30.3775 31.0485 31.0491C30.6268 31.4708 30.0835 31.69 29.526 31.69Z" fill="black"/>
<path opacity="0.05" d="M29.5237 31.2726C29.2579 31.2726 28.9871 31.2101 28.7321 31.0826L17.3121 25.3726C16.1571 24.7951 15.2029 23.8409 14.6254 22.6859L8.91624 11.2668C8.57374 10.5809 8.70208 9.78759 9.24458 9.24509C9.78708 8.70342 10.5804 8.57426 11.2662 8.91676L22.6862 14.6268C23.8412 15.2043 24.7954 16.1584 25.3729 17.3134L31.0829 28.7334C31.4254 29.4193 31.2971 30.2126 30.7546 30.7551C30.4129 31.0951 29.9737 31.2726 29.5237 31.2726Z" fill="black"/>
<path d="M22.4991 14.9998L11.0791 9.28983C9.93243 8.7165 8.71576 9.93316 9.2891 11.0798L14.9991 22.4998C15.5399 23.5815 16.4174 24.459 17.4991 24.9998L28.9191 30.7098C30.0658 31.2832 31.2824 30.0665 30.7091 28.9198L24.9991 17.4998C24.4583 16.4182 23.5808 15.5407 22.4991 14.9998Z" fill="url(#paint5_linear_629_32388)"/>
<path d="M20 22.5C21.3807 22.5 22.5 21.3807 22.5 20C22.5 18.6193 21.3807 17.5 20 17.5C18.6193 17.5 17.5 18.6193 17.5 20C17.5 21.3807 18.6193 22.5 20 22.5Z" fill="url(#paint6_linear_629_32388)"/>
<defs>
<linearGradient id="paint0_linear_629_32388" x1="11.7657" y1="18.5133" x2="15.1182" y2="37.5275" gradientUnits="userSpaceOnUse">
<stop stop-color="#0176D3"/>
<stop offset="0.998" stop-color="#185899"/>
</linearGradient>
<linearGradient id="paint1_linear_629_32388" x1="24.8818" y1="2.47254" x2="28.2343" y2="21.4867" gradientUnits="userSpaceOnUse">
<stop stop-color="#4FE2FF"/>
<stop offset="0.998" stop-color="#27ADED"/>
</linearGradient>
<linearGradient id="paint2_linear_629_32388" x1="10.449" y1="4.75754" x2="13.344" y2="21.1742" gradientUnits="userSpaceOnUse">
<stop stop-color="#20A3E7"/>
<stop offset="0.998" stop-color="#1287D9"/>
</linearGradient>
<linearGradient id="paint3_linear_629_32388" x1="26.6567" y1="18.8258" x2="29.5517" y2="35.2425" gradientUnits="userSpaceOnUse">
<stop stop-color="#1795E0"/>
<stop offset="0.998" stop-color="#218CD0"/>
</linearGradient>
<linearGradient id="paint4_linear_629_32388" x1="18.4266" y1="11.0802" x2="21.5716" y2="28.9202" gradientUnits="userSpaceOnUse">
<stop offset="0.002" stop-color="#CDEFFD"/>
<stop offset="1" stop-color="#C1D8EF"/>
</linearGradient>
<linearGradient id="paint5_linear_629_32388" x1="17.8524" y1="7.82316" x2="22.1458" y2="32.1765" gradientUnits="userSpaceOnUse">
<stop stop-color="white"/>
<stop offset="0.998" stop-color="#DEDCDD"/>
</linearGradient>
<linearGradient id="paint6_linear_629_32388" x1="19.5658" y1="17.5375" x2="20.4342" y2="22.4625" gradientUnits="userSpaceOnUse">
<stop stop-color="#28A7E1"/>
<stop offset="0.998" stop-color="#156FBB"/>
</linearGradient>
</defs>
</svg>

<svg width="40" height="40" fill="none" xmlns="http://www.w3.org/2000/svg"><path d="M20.834 19.167 3.334 20c0 9.204 7.463 16.667 16.667 16.667l.833-17.5Z" fill="url(#a)"/><path d="m19.166 20.833 17.5-.833c0-9.204-7.462-16.667-16.667-16.667l-.833 17.5Z" fill="url(#b)"/><path d="M20 20H3.335c0-9.204 7.463-16.667 16.667-16.667V20Z" fill="url(#c)"/><path d="M20 20h16.667c0 9.204-7.463 16.667-16.667 16.667V20Z" fill="url(#d)"/><path opacity=".05" d="M31.049 8.95c.67.672.83 1.654.406 2.503l-5.71 11.42a6.463 6.463 0 0 1-2.873 2.872l-11.42 5.71a2.139 2.139 0 0 1-2.502-.406 2.138 2.138 0 0 1-.406-2.502l5.71-11.42a6.459 6.459 0 0 1 2.872-2.873l11.42-5.71a2.2 2.2 0 0 1 .98-.235c.558 0 1.101.22 1.523.641Z" fill="#000"/><path opacity=".05" d="M30.754 9.245a1.73 1.73 0 0 1 .329 2.022l-5.71 11.42a6.045 6.045 0 0 1-2.687 2.686l-11.42 5.71a1.728 1.728 0 0 1-2.022-.329 1.73 1.73 0 0 1-.328-2.021l5.71-11.42a6.045 6.045 0 0 1 2.687-2.687l11.42-5.71c.255-.127.525-.19.791-.19.45.002.89.18 1.23.52Z" fill="#000"/><path d="m22.5 25-11.42 5.71c-1.148.573-2.364-.643-1.79-1.79L15 17.5a5.59 5.59 0 0 1 2.5-2.5l11.42-5.71c1.146-.573 2.362.644 1.79 1.79L25 22.5a5.59 5.59 0 0 1-2.5 2.5Z" fill="url(#e)"/><path opacity=".05" d="M29.526 31.69a2.19 2.19 0 0 1-.98-.235l-11.42-5.71a6.458 6.458 0 0 1-2.873-2.873l-5.71-11.42A2.14 2.14 0 0 1 8.95 8.95a2.138 2.138 0 0 1 2.503-.406l11.42 5.71a6.459 6.459 0 0 1 2.872 2.873l5.71 11.42a2.14 2.14 0 0 1-.405 2.502 2.143 2.143 0 0 1-1.523.641Z" fill="#000"/><path opacity=".05" d="M29.524 31.273a1.77 1.77 0 0 1-.792-.19l-11.42-5.71a6.045 6.045 0 0 1-2.687-2.687l-5.709-11.42a1.728 1.728 0 0 1 .329-2.02 1.729 1.729 0 0 1 2.021-.33l11.42 5.71a6.045 6.045 0 0 1 2.687 2.687l5.71 11.42a1.73 1.73 0 0 1-.328 2.022 1.74 1.74 0 0 1-1.231.518Z" fill="#000"/><path d="M22.5 15 11.08 9.29c-1.148-.573-2.364.643-1.79 1.79L15 22.5a5.59 5.59 0 0 0 2.5 2.5l11.42 5.71c1.146.573 2.362-.643 1.79-1.79L25 17.5a5.591 5.591 0 0 0-2.5-2.5Z" fill="url(#f)"/><path d="M20 22.5a2.5 2.5 0 1 0 0-5 2.5 2.5 0 0 0 0 5Z" fill="url(#g)"/><defs><linearGradient id="a" x1="11.766" y1="18.513" x2="15.118" y2="37.528" gradientUnits="userSpaceOnUse"><stop stop-color="#0176D3"/><stop offset=".998" stop-color="#185899"/></linearGradient><linearGradient id="b" x1="24.882" y1="2.473" x2="28.234" y2="21.487" gradientUnits="userSpaceOnUse"><stop stop-color="#4FE2FF"/><stop offset=".998" stop-color="#27ADED"/></linearGradient><linearGradient id="c" x1="10.449" y1="4.758" x2="13.344" y2="21.174" gradientUnits="userSpaceOnUse"><stop stop-color="#20A3E7"/><stop offset=".998" stop-color="#1287D9"/></linearGradient><linearGradient id="d" x1="26.657" y1="18.826" x2="29.552" y2="35.242" gradientUnits="userSpaceOnUse"><stop stop-color="#1795E0"/><stop offset=".998" stop-color="#218CD0"/></linearGradient><linearGradient id="e" x1="18.427" y1="11.08" x2="21.572" y2="28.92" gradientUnits="userSpaceOnUse"><stop offset=".002" stop-color="#CDEFFD"/><stop offset="1" stop-color="#C1D8EF"/></linearGradient><linearGradient id="f" x1="17.852" y1="7.823" x2="22.146" y2="32.176" gradientUnits="userSpaceOnUse"><stop stop-color="#fff"/><stop offset=".998" stop-color="#DEDCDD"/></linearGradient><linearGradient id="g" x1="19.566" y1="17.538" x2="20.434" y2="22.462" gradientUnits="userSpaceOnUse"><stop stop-color="#28A7E1"/><stop offset=".998" stop-color="#156FBB"/></linearGradient></defs></svg>
